stadium.svg

<svg fill="currentColor" viewBox="0 0 24 24"><path d="M7 5 3 7V3zm11-2v4l4-2zm-7-1v4l4-2zm-6 8c1.4.5 3.8 1 7 1s5.6-.5 7-1c0-.2-2.8-1-7-1s-7 .9-7 1m10 7H9v4.9c-4.1-.4-7-1.5-7-2.9v-9c0-1.7 4.5-3 10-3s10 1.3 10 3v9c0 1.3-2.9 2.5-7 2.9z"/></svg>

<svg  viewBox="0 0 24 24" fill="currentColor"><path  d="M7 5L3 7V3L7 5M18 3V7L22 5L18 3M11 2V6L15 4L11 2M5 10C6.4 10.5 8.8 11 12 11S17.6 10.5 19 10C19 9.8 16.2 9 12 9S5 9.9 5 10M15 17H9V21.9C4.9 21.5 2 20.4 2 19V10C2 8.3 6.5 7 12 7S22 8.3 22 10V19C22 20.3 19.1 21.5 15 21.9V17Z"/></svg>
